svg/fluentui-system-icons/ic_fluent_hand_left_24_filled.svg

<svg width="24" height="24" viewBox="0 0 24 24" fill="none" xmlns="http://www.w3.org/2000/svg">
<path d="M14 4.25266C14 3.7005 14.4477 3.25289 15 3.25289C15.5523 3.25289 16 3.7005 16 4.25266V10.9993C16 11.2754 16.2239 11.4992 16.5 11.4992C16.7761 11.4992 17 11.2754 17 10.9993V5.9991C17 5.44694 17.4477 4.99932 18 4.99932C18.5523 4.99932 19 5.44694 19 5.9991V14.7539C19 16.9328 17.8316 19.2623 17.086 20.5415C16.5298 21.4956 15.5059 22 14.4634 22H12.2954C11.0642 22 9.93867 21.3044 9.38825 20.2033L9.25488 19.9366C8.83419 19.095 8.30955 18.3095 7.69325 17.5986L5.48144 15.047L3.28954 13.3426C3.10685 13.2005 3 12.9821 3 12.7507C3 12.266 3.25911 11.906 3.59157 11.6913C3.88769 11.5 4.24163 11.4183 4.55363 11.3812C5.1898 11.3057 5.96355 11.3829 6.64292 11.5147C7.15644 11.6144 7.61705 11.8087 8 12.0191V4.25266C8 3.7005 8.44771 3.25289 9 3.25289C9.55229 3.25289 10 3.7005 10 4.25266V10.5013C10 10.7773 10.2239 11.0011 10.5 11.0011C10.7761 11.0011 11 10.7773 11 10.5013V2.99977C11 2.44761 11.4477 2 12 2C12.5523 2 13 2.44761 13 2.99977V10.5013C13 10.7773 13.2239 11.0011 13.5 11.0011C13.7761 11.0011 14 10.7773 14 10.5013V4.25266Z" fill="#212121"/>
</svg>

<svg xmlns="http://www.w3.org/2000/svg" width="24" height="24"><path d="M14 4.253a1 1 0 0 1 2 0v6.746a.5.5 0 0 0 1 0V6a1 1 0 0 1 2 0v8.755c0 2.179-1.168 4.508-1.914 5.787-.556.955-1.58 1.459-2.623 1.459h-2.168a3.25 3.25 0 0 1-2.907-1.797l-.133-.266A11.245 11.245 0 0 0 7.693 17.6l-2.212-2.552-2.191-1.704A.75.75 0 0 1 3 12.75c0-.485.26-.845.592-1.06.296-.191.65-.273.962-.31.636-.075 1.41.002 2.089.134A4.7 4.7 0 0 1 8 12.019V4.253a1 1 0 0 1 2 0V10.5a.5.5 0 0 0 1 0V3a1 1 0 0 1 2 0v7.5a.5.5 0 0 0 1 0V4.253Z"/></svg>
